files/2024-06-05/svg/work/dekd_writer.svg

<?xml version="1.0" encoding="UTF-8" standalone="no"?>
<!-- Created with Inkscape (http://www.inkscape.org/) -->

<svg
   width="48"
   height="48"
   viewBox="0 0 48 48"
   version="1.1"
   id="svg1"
   xml:space="preserve"
   inkscape:version="1.3.2 (091e20e, 2023-11-25, custom)"
   sodipodi:docname="dekd_writer.svg"
   xmlns:inkscape="http://www.inkscape.org/namespaces/inkscape"
   xmlns:sodipodi="http://sodipodi.sourceforge.net/DTD/sodipodi-0.dtd"
   xmlns="http://www.w3.org/2000/svg"
   xmlns:svg="http://www.w3.org/2000/svg"><sodipodi:namedview
     id="namedview1"
     pagecolor="#505050"
     bordercolor="#eeeeee"
     borderopacity="1"
     inkscape:showpageshadow="0"
     inkscape:pageopacity="0"
     inkscape:pagecheckerboard="0"
     inkscape:deskcolor="#505050"
     inkscape:document-units="px"
     inkscape:zoom="6.3418639"
     inkscape:cx="32.324881"
     inkscape:cy="24.519605"
     inkscape:window-width="1920"
     inkscape:window-height="1057"
     inkscape:window-x="-8"
     inkscape:window-y="-8"
     inkscape:window-maximized="1"
     inkscape:current-layer="svg1" /><defs
     id="defs1"><style
       id="style1">
      .cls-1 {
        fill: none;
        stroke: #fff;
        stroke-linecap: round;
        stroke-linejoin: round;
      }
    </style></defs><path
     id="path3"
     style="fill:none;stroke:#ffffff;stroke-width:1;stroke-linecap:round;stroke-linejoin:round;stroke-opacity:1;-inkscape-stroke:none"
     inkscape:label="path3"
     d="m 26.473933,35.413639 c -1.284679,1.573706 -1.821165,3.313886 -0.938799,5.396361 2.624177,-0.05122 4.006092,-1.301653 5.290767,-2.875366 l -4.351967,-2.520996 11.029965,-13.5116 m 4.351969,2.520997 2.537524,-3.108442 c -0.796736,-1.749273 -2.35486,-2.787696 -4.351968,-2.520996 l -2.537526,3.108442 c 1.809183,0.362297 3.486195,1.163626 4.351969,2.520997 L 30.8259,37.934635 M 13.753783,35.874511 c -0.484921,2.64197 -0.409586,3.608459 1.156808,6.593375 0.153163,-1.495563 0.07729,-2.063917 0.642361,-2.954862 0.992955,1.161656 1.950483,2.137234 3.661459,2.119793 -2.29136,-0.94198 -1.43801,-2.262702 -1.285281,-5.758306 M 16.036003,28.320457 18.75416,11.471715 h 4.799295 c 5.153906,0 8.799547,3.300251 8.142771,7.371325 l -0.339767,2.106091 c -0.656775,4.071074 -5.367253,7.371325 -10.521161,7.371325 l -4.799295,1e-6 v 0 M 42.5,27.970594 v 0 m 0,0 c 0,3.191685 -2.569493,5.760662 -5.761178,5.761176 M 25.446,33.73317 11.899524,33.73577 c -3.1551533,6.06e-4 -5.7022756,2.511019 -5.7601705,5.651829 M 12.290267,42.5 H 11.261176 C 8.0694877,42.5 5.5000005,39.930511 5.5000005,36.738822 V 11.261177 c 0,-3.1916893 2.5694872,-5.7611765 5.7611755,-5.7611765 h 25.477646 c 3.191689,0 5.761177,2.5694872 5.761177,5.7611765 l -1e-6,5.886778 m -10e-7,9.287045 2e-6,10.303823 C 42.5,39.930512 39.930511,42.5 36.738822,42.5 H 21.302084"
     sodipodi:nodetypes="ccccccccccccccccccsssscccccccsccssssssccssc" /></svg>

<?xml version="1.0" encoding="UTF-8"?>
<svg width="48" height="48" version="1.1" viewBox="0 0 48 48" xml:space="preserve" xmlns="http://www.w3.org/2000/svg"><defs><style>
      .cls-1 {
        fill: none;
        stroke: #fff;
        stroke-linecap: round;
        stroke-linejoin: round;
      }
    </style></defs><path d="m26.474 35.414c-1.2847 1.5737-1.8212 3.3139-0.9388 5.3964 2.6242-0.05122 4.0061-1.3017 5.2908-2.8754l-4.352-2.521 11.03-13.512m4.352 2.521 2.5375-3.1084c-0.79674-1.7493-2.3549-2.7877-4.352-2.521l-2.5375 3.1084c1.8092 0.3623 3.4862 1.1636 4.352 2.521l-11.03 13.512m-17.072-2.0601c-0.48492 2.642-0.40959 3.6085 1.1568 6.5934 0.15316-1.4956 0.07729-2.0639 0.64236-2.9549 0.99296 1.1617 1.9505 2.1372 3.6615 2.1198-2.2914-0.94198-1.438-2.2627-1.2853-5.7583m-1.8931-7.5541 2.7182-16.849h4.7993c5.1539 0 8.7995 3.3003 8.1428 7.3713l-0.33977 2.1061c-0.65678 4.0711-5.3673 7.3713-10.521 7.3713l-4.7993 1e-6v0m26.464-0.34986v0m0 0c0 3.1917-2.5695 5.7607-5.7612 5.7612m-11.293 0.0014-13.546 0.0026c-3.1552 6.06e-4 -5.7023 2.511-5.7602 5.6518m6.1509 3.1124h-1.0291c-3.1917 0-5.7612-2.5695-5.7612-5.7612v-25.478c0-3.1917 2.5695-5.7612 5.7612-5.7612h25.478c3.1917 0 5.7612 2.5695 5.7612 5.7612l-1e-6 5.8868m-1e-6 9.287 2e-6 10.304c1e-6 3.1917-2.5695 5.7612-5.7612 5.7612h-15.437" fill="none" stroke="#fff" stroke-linecap="round" stroke-linejoin="round" style="-inkscape-stroke:none"/></svg>
